Numix/24x24/categories/applications-geology.svg

<?xml version="1.0" encoding="UTF-8" standalone="no"?>
<svg
   xmlns:dc="http://purl.org/dc/elements/1.1/"
   xmlns:cc="http://creativecommons.org/ns#"
   xmlns:rdf="http://www.w3.org/1999/02/22-rdf-syntax-ns#"
   xmlns:svg="http://www.w3.org/2000/svg"
   xmlns="http://www.w3.org/2000/svg"
   xmlns:sodipodi="http://sodipodi.sourceforge.net/DTD/sodipodi-0.dtd"
   xmlns:inkscape="http://www.inkscape.org/namespaces/inkscape"
   width="24"
   height="24"
   viewBox="0 0 24 24"
   id="svg2"
   version="1.1"
   inkscape:version="0.91 r"
   sodipodi:docname="applications-geology.svg">
  <metadata
     id="metadata22">
    <rdf:RDF>
      <cc:Work
         rdf:about="">
        <dc:format>image/svg+xml</dc:format>
        <dc:type
           rdf:resource="http://purl.org/dc/dcmitype/StillImage" />
        <dc:title></dc:title>
      </cc:Work>
    </rdf:RDF>
  </metadata>
  <defs
     id="defs20" />
  <sodipodi:namedview
     pagecolor="#ffffff"
     bordercolor="#666666"
     borderopacity="1"
     objecttolerance="10"
     gridtolerance="10"
     guidetolerance="10"
     inkscape:pageopacity="0"
     inkscape:pageshadow="2"
     inkscape:window-width="1920"
     inkscape:window-height="1056"
     id="namedview18"
     showgrid="true"
     inkscape:zoom="20.85965"
     inkscape:cx="16.527492"
     inkscape:cy="16.256541"
     inkscape:window-x="0"
     inkscape:window-y="24"
     inkscape:window-maximized="1"
     inkscape:current-layer="svg2">
    <inkscape:grid
       type="xygrid"
       id="grid4150" />
  </sodipodi:namedview>
  <g
     id="g6"
     style="fill:#a47854;fill-rule:evenodd;stroke:#a47854;stroke-width:1.65992212;stroke-linejoin:round"
     transform="matrix(0.63460343,0,0,0.63138643,1.9622705,1.9945938)">
    <path
       inkscape:connector-curvature="0"
       id="path8"
       transform="scale(0.1237,0.1237)"
       d="m 30.725798,148.1975 c 38.27304,-0.53683 53.778042,-5.24201 65.525213,-8.87353 11.778749,-3.6631 29.210039,-11.49454 29.210039,-11.49454 l 44.02031,89.84059 -138.755562,0 z"
       style="stroke-width:8.99345875" />
    <path
       inkscape:connector-curvature="0"
       id="path10"
       transform="scale(0.1237,0.1237)"
       d="m 157.29209,182.08114 c 0,0 -19.76809,10.95771 -25.45221,13.73661 -7.86302,3.82099 -21.41016,14.11556 -45.157129,21.47333 l -55.641169,0 0,-43.894 c 32.146827,-1.01051 55.293806,-1.98944 69.693568,-8.02092 14.36817,-6.03148 41.46245,-20.08387 41.46245,-20.08387 z"
       style="stroke-width:10.16370296" />
    <path
       inkscape:connector-curvature="0"
       id="path12"
       transform="scale(0.1237,0.1237)"
       d="m 132.53461,142.1976 c 20.84175,-20.90491 14.7787,-27.15743 35.93624,-28.98898 21.15753,-1.79997 56.80957,14.08397 56.80957,14.08397 l 0,90.31427 -55.79906,0 z"
       style="stroke-width:8.99345875" />
    <path
       inkscape:connector-curvature="0"
       id="path14"
       transform="scale(0.1237,0.1237)"
       d="m 224.61727,184.10216 c 0,0 -4.98939,-2.62101 -11.46297,-5.36833 -6.37884,-2.65259 -11.49454,-3.97888 -23.08382,-0.66315 -7.83144,2.24207 -14.36818,7.23146 -27.72585,17.2734 l -17.1155,-43.04138 c 13.29452,-11.96822 23.77855,-20.39966 37.13622,-21.41017 13.38925,-1.01051 24.41011,1.35787 31.13632,4.67361 6.69462,3.34731 10.45245,5.68411 10.45245,5.68411 z"
       style="stroke-width:10.16370296" />
  </g>
  <path
     inkscape:connector-curvature="0"
     id="path16"
     d="m 4.6850635,4.4999995 14.6298725,0 c 0.101169,0 0.185064,0.083895 0.185064,0.1850634 l 0,14.6298731 C 19.5,19.416104 19.41611,19.5 19.314936,19.5 l -14.6298725,0 C 4.5838955,19.5 4.5,19.41611 4.5,19.314936 l 0,-14.6298731 c 0,-0.101168 0.083895,-0.1850634 0.1850635,-0.1850634 z"
     style="fill:none;stroke:#a47854;stroke-width:0.99999994;stroke-linecap:round;stroke-miterlimit:4;stroke-dasharray:none" />
</svg>

<svg width="24" xmlns="http://www.w3.org/2000/svg" height="24" viewBox="0 0 24 24" xmlns:xlink="http://www.w3.org/1999/xlink">
<g style="stroke:#a47854">
<g style="fill:#a47854;fill-rule:evenodd;stroke-linejoin:round">
<path style="stroke-width:5.418" d="M 30.69422 148.165926 C 69.009364 147.660671 84.50384 142.944961 96.251011 139.323969 C 108.040286 135.660873 125.471571 127.829426 125.471571 127.829426 L 169.47083 217.63844 L 30.69422 217.63844 Z " transform="scale(.09277)"/>
<path style="stroke-width:6.123" d="M 157.302614 182.060092 C 157.302614 182.060092 137.513473 193.04938 131.829359 195.828281 C 123.955807 199.617691 110.440245 209.933306 86.693277 217.301603 L 31.073161 217.301603 L 31.073161 173.386553 C 63.198936 172.376044 86.35644 171.407639 100.756198 165.386688 C 115.113851 159.323632 142.229184 145.302816 142.229184 145.302816 Z " transform="scale(.09277)"/>
<path style="stroke-width:5.418" d="M 132.545136 142.187079 C 153.38689 121.30322 147.323835 115.029642 168.460321 113.219146 C 189.638911 111.40865 225.301469 127.282067 225.301469 127.282067 L 225.301469 217.596335 L 169.47083 217.596335 Z " transform="scale(.09277)"/>
<path style="stroke-width:6.123" d="M 224.585691 184.123215 C 224.585691 184.123215 219.617354 181.470628 213.175357 178.733832 C 206.775465 176.081245 201.638709 174.776004 190.059957 178.060159 C 182.22851 180.333805 175.702304 185.302142 162.35516 195.323026 L 145.218607 152.334276 C 158.523646 140.334479 169.00768 131.913568 182.354823 130.903058 C 195.744072 129.892549 206.775465 132.250404 213.512193 135.576664 C 220.164713 138.902924 223.954123 141.260779 223.954123 141.260779 Z " transform="scale(.09277)"/>
</g>
<path style="fill:none;stroke-linecap:round;stroke-width:8.073" d="M 34.399421 32.041566 L 221.596268 32.041566 C 222.901509 32.041566 223.954123 33.094179 223.954123 34.399421 L 223.954123 221.596268 C 223.954123 222.901509 222.901509 223.954123 221.596268 223.954123 L 34.399421 223.954123 C 33.094179 223.954123 32.041566 222.901509 32.041566 221.596268 L 32.041566 34.399421 C 32.041566 33.094179 33.094179 32.041566 34.399421 32.041566 Z " transform="scale(.09277)"/>
</g>
</svg>
